tipitek/img/icon-twitter.svg

<svg width="20" height="16" viewBox="0 0 20 16" fill="none" xmlns="http://www.w3.org/2000/svg">
<path d="M19.6004 2.05379C18.8943 2.35837 18.126 2.57758 17.3345 2.66295C18.1562 2.17478 18.7715 1.40356 19.0651 0.493979C18.294 0.952668 17.4493 1.27431 16.5684 1.44463C16.2003 1.05105 15.755 0.737503 15.2604 0.523531C14.7657 0.309559 14.2323 0.199747 13.6934 0.200937C11.5129 0.200937 9.75927 1.96842 9.75927 4.13739C9.75927 4.44197 9.79619 4.74655 9.85618 5.03959C6.59119 4.86884 3.67923 3.30903 1.74331 0.920851C1.39056 1.52335 1.20571 2.20937 1.20799 2.90754C1.20799 4.27352 1.90252 5.478 2.96162 6.18637C2.33748 6.16179 1.72794 5.99024 1.1826 5.68566V5.73412C1.1826 7.64697 2.53475 9.23216 4.33684 9.59673C3.99848 9.68462 3.6504 9.72959 3.30081 9.73056C3.04469 9.73056 2.80241 9.70518 2.55782 9.67057C3.05623 11.2304 4.50759 12.3633 6.23584 12.4002C4.8837 13.4593 3.19006 14.0823 1.35105 14.0823C1.02109 14.0823 0.716507 14.0708 0.400391 14.0339C2.1448 15.153 4.21455 15.7991 6.44351 15.7991C13.6796 15.7991 17.6391 9.8044 17.6391 4.60118C17.6391 4.43043 17.6391 4.25968 17.6276 4.08893C18.3936 3.52823 19.0651 2.8337 19.6004 2.05379Z" fill="black"/>
</svg>

<svg width="20" height="16" fill="none" xmlns="http://www.w3.org/2000/svg"><path d="M19.6 2.054a7.89 7.89 0 0 1-2.266.609A3.925 3.925 0 0 0 19.066.494a7.768 7.768 0 0 1-2.497.95A3.924 3.924 0 0 0 13.693.202 3.934 3.934 0 0 0 9.76 4.137c0 .305.037.61.097.903A11.181 11.181 0 0 1 1.743.92a3.907 3.907 0 0 0-.535 1.988c0 1.366.695 2.57 1.754 3.278a3.969 3.969 0 0 1-1.78-.5v.048a3.935 3.935 0 0 0 3.155 3.863A4.167 4.167 0 0 1 3.3 9.73c-.256 0-.499-.026-.743-.06a3.942 3.942 0 0 0 3.678 2.73 7.886 7.886 0 0 1-4.885 1.681c-.33 0-.634-.011-.95-.048a11.142 11.142 0 0 0 6.043 1.765c7.236 0 11.195-5.995 11.195-11.198 0-.17 0-.341-.011-.512A8.475 8.475 0 0 0 19.6 2.054z" fill="#000"/></svg>
